X: 117
T: Billy Byrne of Ballymanus
R: march
%S: s:1 b:8
B: O'Neill's 1850 #117
Z: 1997 henrik.norbeck@mailbox.swipnet.se
N: Compacted by using labels and play order [JC]
P: Play AB BA
Q: "Moderate"
M: 2/4
L: 1/8
K: D
"^A"[| (f/e/) | dd FG | A>G F(E/F/) | G/F/E/F/ DD | "^fine"D3 \
"^B"|: (F/G/) | AA d>e| fg/f/ ef/e/ | d/c/A/G/ A/B/c/e/ | "->A"d3 :|
